src/assets/enableAccount.svg

<svg width="15" height="17" viewBox="0 0 15 17" fill="none" xmlns="http://www.w3.org/2000/svg">
<path d="M14.8851 6.86451C14.781 6.63738 14.5577 6.49232 14.3122 6.49232H8.55042L9.18133 1.33592C9.21618 1.05123 9.06313 0.77714 8.80548 0.66289C8.54779 0.548577 8.24734 0.621577 8.06753 0.841983L0.869297 9.66635C0.712158 9.85901 0.678265 10.1272 0.782392 10.3543C0.886519 10.5813 1.10985 10.7264 1.35534 10.7264H7.11708L6.48617 15.8828C6.45136 16.1675 6.6044 16.4416 6.86203 16.5559C6.94336 16.592 7.02898 16.6094 7.11375 16.6094C7.29738 16.6094 7.47694 16.5276 7.6 16.3768L14.7983 7.55245C14.9554 7.35976 14.9893 7.09163 14.8851 6.86451ZM8.00935 13.8557L8.46153 10.1603C8.48404 9.97629 8.42815 9.79135 8.30806 9.65238C8.18796 9.51341 8.01522 9.43382 7.83377 9.43382H2.70608L7.65815 3.36304L7.20598 7.05851C7.18346 7.24248 7.23935 7.42741 7.35944 7.56638C7.47954 7.70535 7.65228 7.78495 7.83374 7.78495H12.9614L8.00935 13.8557Z" fill="#8FA4B5"/>
</svg>

<svg width="15" height="17" fill="none" xmlns="http://www.w3.org/2000/svg"><path d="M14.885 6.865a.632.632 0 00-.573-.373H8.55l.631-5.156a.649.649 0 00-.376-.673.624.624 0 00-.737.179L.869 9.666a.658.658 0 00-.087.688.632.632 0 00.573.372h5.762l-.63 5.157a.649.649 0 00.375.673.62.62 0 00.738-.18l7.198-8.824a.658.658 0 00.087-.687zm-6.876 6.99l.453-3.695a.656.656 0 00-.154-.508.627.627 0 00-.474-.218H2.706l4.952-6.071-.452 3.696a.656.656 0 00.153.507c.12.14.293.219.475.219h5.127l-4.952 6.07z" fill="#8FA4B5"/></svg>
